!!!COM: Palestrina, Giovanni Perluigi da
!!!OPR: Missa Vestiva i colli
!!!OMD: Credo
!!!OTL: Et iterum
**kern	**kern	**kern	**kern
*Ibass	*Itenor	*Itenor	*Icalto
!Bassus	!Tenor 2	!Tenor 1	!Altus
*clefF4	*clefGv2	*clefGv2	*clefG2
*k[]	*k[]	*k[]	*k[]
*A:aeo	*A:aeo	*A:aeo	*A:aeo
*M4/2	*M4/2	*M4/2	*M4/2
=131	=131	=131	=131
1D	1r	0r	0r
2.F	1A	.	.
4G	.	.	.
=132	=132	=132	=132
2A	2c	0r	0r
2F	2d	.	.
2G	1e	.	.
2A	.	.	.
=133	=133	=133	=133
4D	1f	0r	0r
4E	.	.	.
4F	.	.	.
4G	.	.	.
4A	2e	.	.
4B	.	.	.
4c	2e	.	.
4A	.	.	.
=134	=134	=134	=134
4B	4d	0r	0r
4A	4c	.	.
1A	4c	.	.
.	8B	.	.
.	8A	.	.
.	1B	.	.
2G#	.	.	.
=135	=135	=135	=135
0A	4A	2r	1r
.	4B	.	.
.	4c	2A	.
.	4d	.	.
.	1e	2.c	2r
.	.	.	2e
.	.	4d	.
=136	=136	=136	=136
0r	0r	2e	2.g
.	.	2c	.
.	.	.	4a
.	.	2d	1b
.	.	2e	.
=137	=137	=137	=137
0r	0r	4A	1.cc
.	.	4B	.
.	.	4c	.
.	.	4d	.
.	.	4e	.
.	.	4f	.
.	.	4g	2b
.	.	4e	.
=138	=138	=138	=138
2r	0r	1.f	1.a
2D	.	.	.
2F	.	.	.
2G	.	4e	4g
.	.	4d	4f
=139	=139	=139	=139
2A	2r	2c	2e
2F	2a	1d	2d
2G	2g	.	1e
2A	2e	2c#	.
=140	=140	=140	=140
2D	2f	1d	1a
2d	2f	.	.
2c	[1e	1r	2r
2A	.	.	2a
=141	=141	=141	=141
2.c	2e]	1r	2g
.	2g	.	2e
4B	.	.	.
2A	2f	2r	2cc
2G	2g	2d	[2b
=142	=142	=142	=142
1A	1.e	2c	4b]
.	.	.	4a
.	.	2A	1a
2r	.	2c	.
2d	2d	2B	2g#
=143	=143	=143	=143
2c	1e	4A	2a
.	.	4B	.
2A	.	4c	2a
.	.	4d	.
2.c	2r	1e	2g
.	2g	.	2e
4B	.	.	.
=144	=144	=144	=144
4A	2f	0r	1.a
4G	.	.	.
4F	2d	.	.
4E	.	.	.
2D	2f	.	.
2E	[2e	.	2g
=145	=145	=145	=145
2F	4e]	1r	2a
.	4d	.	.
2G	1d	.	2b
1E	.	2r	1g
.	2c#	2g	.
=146	=146	=146	=146
0D	2d	2f	1r
.	2a	2d	.
.	2.a	2.f	2r
.	.	.	2a
.	4g	4e	.
=147	=147	=147	=147
0r	2f	2d	2.a
.	1e	2c#	.
.	.	.	4g
.	.	1d	2f
.	[2d	.	2f
=148	=148	=148	=148
0r	2d]	1A	2e
.	2c#	.	2e
.	2d	2f	1d
.	[2d	2f	.
=149	=149	=149	=149
1A	2d]	1e	0r
.	2c#	.	.
2F	2d	1r	.
2G	[2e	.	.
=150	=150	=150	=150
1A	4e]	1e	2r
.	4d	.	.
.	4c	.	1a
.	4B	.	.
1r	2A	2c	.
.	2d	2d	2f
=151	=151	=151	=151
0r	2c	0e	2g
.	4A	.	1a
.	4B	.	.
.	4c	.	.
.	4d	.	.
.	4e	.	2g
.	4c	.	.
=152	=152	=152	=152
1r	2d	0r	2f
.	2.e	.	2g
1A	.	.	1e
.	4d	.	.
.	[2c	.	.
=153	=153	=153	=153
2F	2c]	2r	1d
2G	2B	2g	.
[1A	[1c	2f	1r
.	.	2e	.
=154	=154	=154	=154
2A]	2c]	2f	2r
2G	2B	2.e	2g
2F	2A	.	2a
.	.	4d	.
2G	2B	[2d	2d
=155	=155	=155	=155
1E	1G	2d]	1g
.	.	2c#	.
2D	1A	2d	2f
[2D	.	[2d	2a
=156	=156	=156	=156
2D]	2r	2d]	2f
2E	2e	2c	2g
1F	2c	2A	1a
.	2d	2A	.
=157	=157	=157	=157
2C	1.e	4c	2g
.	.	4d	.
4C	.	4e	1cc
4D	.	4f	.
4E	.	2.g	.
4F	.	.	.
2G	2d	.	[2b
.	.	4f	.
=158	=158	=158	=158
2A	2c	2e	4b]
.	.	.	4a
2D	2d	2f	1a
2r	1B	1d	.
2d	.	.	2g#
=159	=159	=159	=159
2d	2A	1e	[0a
2c#	2.e	.	.
1d	.	2.f	.
.	4d	.	.
.	[2d	.	.
.	.	4d	.
=160	=160	=160	=160
1A	2d]	1e	1a]
.	2c#	.	.
2r	2d	1f	2r
[2D	[2d	.	2a
=161	=161	=161	=161
2D]	2d]	2r	2f
2E	2c	2e	2g
1F	2A	2c	1a
.	2A	2d	.
=162	=162	=162	=162
2C	4c	1.e	2g
.	4d	.	.
4C	4e	.	1cc
4D	4f	.	.
4E	1g	.	.
4F	.	.	.
2G	.	2d	[2b
=163	=163	=163	=163
2A	2e	2c	4b]
.	.	.	4a
2D	2f	2d	1a
1E	1e	1B	.
.	.	.	2g#
=164	=164	=164	=164
2.F	2c	1A	[0a
.	2c	.	.
4E	.	.	.
2D	2f	2r	.
2C#	2e	2e	.
=165	=165	=165	=165
0D	2.d	2.f	1a_
.	4e	4e	.
.	1f	1d	1a_
=166	=166	=166	=166
0A	0e	0c#	0a]
*-	*-	*-	*-
!!!CDT: 1525/^1526/-1594/2/2
!!!OCY: Italia
!!!AGN: Mass (Parody)
!!!AST: renaissance, vocal
!!!ASW: Madrigal 1566 (Palestrina)
!!!PWK: Masses, Book 9
!!!RNB: Cadence finals: D
!!!YOR: Le Opere Complete, v. 25, p. 54
!!!YOO: Rome, Italy: Fratelli Scalera
!!!END: 1992//
!!!EED: John Miller
!!!YEC: Copyright 2000, John Miller
!!!YEN: United States of America
!!!YEM: Rights to all derivative electronic formats reserved.
!!!YEM: Refer to licensing agreement for further details.
!!!YEM: This file must be accompanied by the licensing agreement.
!!!YEM: A copy of the licensing agreement may be found at http://www.music-cog.ohio-state.edu/HumdrumDatabases/Palestrina/license.txt
!!!EMD: converted to Humdrum by Bret Aarden
